svgs/flashy.svg

<svg xmlns="http://www.w3.org/2000/svg" viewBox="0 0 192 192"><path fill="none" stroke="#000" stroke-linecap="round" stroke-linejoin="round" stroke-width="8" d="M92.869 88.777a7.353 7.353 0 0 0 6.348 12.463 7.353 7.353 0 0 0 4.049-2.066m-1.718-49.323-2.621 14.994a18.85 18.85 0 0 1-.816 3.524 8.592 8.592 0 0 1-1.117 2.148 18.96 18.96 0 0 1-2.449 2.664L17.81 149.915a4.304 4.304 0 0 0 0 6.101l18.088 18.216a4.29 4.29 0 0 0 4.168 1.123 4.29 4.29 0 0 0 1.933-1.123l76.864-76.734c.807-.9 1.699-1.72 2.663-2.449a8.598 8.598 0 0 1 2.149-1.117 18.822 18.822 0 0 1 3.523-.816l14.994-2.621a46.31 46.31 0 0 0 19.635-11.686l-48.593-48.593a46.32 46.32 0 0 0-11.686 19.635Zm-8.593 38.926a7.352 7.352 0 0 1 10.397 10.397l-10.397 10.44a7.397 7.397 0 0 1-5.152 1.934 7.393 7.393 0 0 1-7.222-7.223 7.387 7.387 0 0 1 1.934-5.151ZM161.827 78.809a184.806 184.806 0 0 0 12.89-14.049 9.799 9.799 0 0 0 0-7.476 24.494 24.494 0 0 0-5.629-6.66l-27.669-27.669a24.484 24.484 0 0 0-6.702-5.714 9.799 9.799 0 0 0-7.476 0 185.014 185.014 0 0 0-14.05 12.889"/></svg>

<svg
    xmlns="http://www.w3.org/2000/svg"
    viewBox="0 0 192 192"
    id="vector">
    <path
        id="path"
        d="M 92.869 88.777 C 91.77 89.874 91.047 91.292 90.803 92.826 C 90.56 94.359 90.808 95.932 91.513 97.315 C 92.218 98.699 93.344 99.825 94.727 100.53 C 96.111 101.235 97.684 101.483 99.217 101.24 C 100.751 100.996 102.169 100.273 103.266 99.174 M 101.548 49.851 L 98.927 64.845 C 98.769 66.043 98.495 67.223 98.111 68.369 C 97.842 69.134 97.466 69.857 96.994 70.517 C 96.265 71.481 95.444 72.373 94.545 73.181 L 17.81 149.915 C 17.271 150.448 16.884 151.115 16.687 151.847 C 16.49 152.579 16.49 153.351 16.687 154.083 C 16.884 154.815 17.271 155.482 17.81 156.016 L 35.898 174.232 C 36.432 174.771 37.099 175.158 37.831 175.355 C 38.563 175.553 39.334 175.553 40.066 175.355 C 40.798 175.158 41.465 174.771 41.999 174.232 L 118.863 97.498 C 119.67 96.598 120.562 95.778 121.526 95.049 C 122.186 94.577 122.91 94.201 123.675 93.932 C 124.82 93.548 126 93.274 127.198 93.116 L 142.192 90.495 C 149.61 88.301 156.361 84.283 161.827 78.809 L 113.234 30.216 C 107.761 35.682 103.742 42.433 101.548 49.851 Z M 92.955 88.777 C 94.334 87.4 96.204 86.626 98.153 86.627 C 100.101 86.627 101.971 87.402 103.349 88.78 C 104.727 90.158 105.502 92.028 105.502 93.976 C 105.503 95.925 104.729 97.795 103.352 99.174 L 92.955 109.614 C 91.551 110.897 89.705 111.59 87.803 111.548 C 85.902 111.505 84.089 110.73 82.744 109.385 C 81.399 108.04 80.624 106.227 80.581 104.325 C 80.538 102.424 81.231 100.578 82.515 99.174 Z"
        fill="none"
        stroke="#000000"
        stroke-width="8"
        stroke-linecap="round"
        stroke-linejoin="round"/>
    <path
        id="path_1"
        d="M 161.827 78.809 C 166.363 74.351 170.665 69.661 174.717 64.76 C 175.705 62.367 175.705 59.677 174.717 57.284 C 173.254 54.745 171.348 52.49 169.088 50.624 L 141.419 22.955 C 139.549 20.661 137.278 18.725 134.717 17.241 C 132.324 16.253 129.634 16.253 127.241 17.241 C 122.339 21.293 117.65 25.595 113.191 30.13"
        fill="none"
        stroke="#000000"
        stroke-width="8"
        stroke-linecap="round"
        stroke-linejoin="round"/>
</svg>
